src/assets/icons/calendar.svg

<svg height="40" viewBox="0 0 40 40" width="40" xmlns="http://www.w3.org/2000/svg"><path d="m12 16.5v-2.25c0-.5522847.4477153-1 1-1h2.375v-1.828125c0-.2320313.1898437-.421875.421875-.421875h1.40625c.2320312 0 .421875.1898437.421875.421875v1.828125h4.5v-1.828125c0-.2320313.1898437-.421875.421875-.421875h1.40625c.2320312 0 .421875.1898437.421875.421875v1.828125h2.375c.5522847 0 1 .4477153 1 1v2.25zm15.75 1.5v11h-15.75v-11zm-11.25 6.921875c0-.2320312-.1898438-.421875-.421875-.421875h-1.40625c-.2320313 0-.421875.1898438-.421875.421875v1.40625c0 .2320313.1898437.421875.421875.421875h1.40625c.2320312 0 .421875-.1898437.421875-.421875zm0-4.5c0-.2320312-.1898438-.421875-.421875-.421875h-1.40625c-.2320313 0-.421875.1898438-.421875.421875v1.40625c0 .2320312.1898437.421875.421875.421875h1.40625c.2320312 0 .421875-.1898438.421875-.421875zm4.5 4.5c0-.2320312-.1898438-.421875-.421875-.421875h-1.40625c-.2320313 0-.421875.1898438-.421875.421875v1.40625c0 .2320313.1898437.421875.421875.421875h1.40625c.2320312 0 .421875-.1898437.421875-.421875zm0-4.5c0-.2320312-.1898438-.421875-.421875-.421875h-1.40625c-.2320313 0-.421875.1898438-.421875.421875v1.40625c0 .2320312.1898437.421875.421875.421875h1.40625c.2320312 0 .421875-.1898438.421875-.421875zm4.5 4.5c0-.2320312-.1898438-.421875-.421875-.421875h-1.40625c-.2320313 0-.421875.1898438-.421875.421875v1.40625c0 .2320313.1898437.421875.421875.421875h1.40625c.2320312 0 .421875-.1898437.421875-.421875zm0-4.5c0-.2320312-.1898438-.421875-.421875-.421875h-1.40625c-.2320313 0-.421875.1898438-.421875.421875v1.40625c0 .2320312.1898437.421875.421875.421875h1.40625c.2320312 0 .421875-.1898438.421875-.421875z" /></svg>

<svg width="16px" height="18px" viewBox="0 0 16 18" version="1.1" xmlns="http://www.w3.org/2000/svg" xmlns:xlink="http://www.w3.org/1999/xlink">
    <defs>
        <path d="M12,16.5 L12,14.25 C12,13.6977153 12.4477153,13.25 13,13.25 L15.375,13.25 L15.375,11.421875 C15.375,11.1898437 15.5648437,11 15.796875,11 L17.203125,11 C17.4351562,11 17.625,11.1898437 17.625,11.421875 L17.625,13.25 L22.125,13.25 L22.125,11.421875 C22.125,11.1898437 22.3148437,11 22.546875,11 L23.953125,11 C24.1851562,11 24.375,11.1898437 24.375,11.421875 L24.375,13.25 L26.75,13.25 C27.3022847,13.25 27.75,13.6977153 27.75,14.25 L27.75,16.5 L12,16.5 Z M27.75,18 L27.75,29 L12,29 L12,18 L27.75,18 Z M16.5,24.921875 C16.5,24.6898438 16.3101562,24.5 16.078125,24.5 L14.671875,24.5 C14.4398437,24.5 14.25,24.6898438 14.25,24.921875 L14.25,26.328125 C14.25,26.5601563 14.4398437,26.75 14.671875,26.75 L16.078125,26.75 C16.3101562,26.75 16.5,26.5601563 16.5,26.328125 L16.5,24.921875 Z M16.5,20.421875 C16.5,20.1898438 16.3101562,20 16.078125,20 L14.671875,20 C14.4398437,20 14.25,20.1898438 14.25,20.421875 L14.25,21.828125 C14.25,22.0601562 14.4398437,22.25 14.671875,22.25 L16.078125,22.25 C16.3101562,22.25 16.5,22.0601562 16.5,21.828125 L16.5,20.421875 Z M21,24.921875 C21,24.6898438 20.8101562,24.5 20.578125,24.5 L19.171875,24.5 C18.9398437,24.5 18.75,24.6898438 18.75,24.921875 L18.75,26.328125 C18.75,26.5601563 18.9398437,26.75 19.171875,26.75 L20.578125,26.75 C20.8101562,26.75 21,26.5601563 21,26.328125 L21,24.921875 Z M21,20.421875 C21,20.1898438 20.8101562,20 20.578125,20 L19.171875,20 C18.9398437,20 18.75,20.1898438 18.75,20.421875 L18.75,21.828125 C18.75,22.0601562 18.9398437,22.25 19.171875,22.25 L20.578125,22.25 C20.8101562,22.25 21,22.0601562 21,21.828125 L21,20.421875 Z M25.5,24.921875 C25.5,24.6898438 25.3101562,24.5 25.078125,24.5 L23.671875,24.5 C23.4398437,24.5 23.25,24.6898438 23.25,24.921875 L23.25,26.328125 C23.25,26.5601563 23.4398437,26.75 23.671875,26.75 L25.078125,26.75 C25.3101562,26.75 25.5,26.5601563 25.5,26.328125 L25.5,24.921875 Z M25.5,20.421875 C25.5,20.1898438 25.3101562,20 25.078125,20 L23.671875,20 C23.4398437,20 23.25,20.1898438 23.25,20.421875 L23.25,21.828125 C23.25,22.0601562 23.4398437,22.25 23.671875,22.25 L25.078125,22.25 C25.3101562,22.25 25.5,22.0601562 25.5,21.828125 L25.5,20.421875 Z" id="path-1"></path>
    </defs>
    <g id="Symbols" stroke="none" stroke-width="1" fill="none" fill-rule="evenodd">
        <g id="Icon/Kalender" transform="translate(-12.000000, -11.000000)">
            <mask id="mask-2" fill="white">
                <use xlink:href="#path-1"></use>
            </mask>
            <use id="Shape" fill="#000000" fill-rule="nonzero" xlink:href="#path-1"></use>
        </g>
    </g>
</svg>
